backend/app/resources/luts/sony_slog3_sgamut3cine_to_rec70922.cube
TITLE "Sony S-Log3 S-Gamut3.Cine Preview to Rec709"
DOMAIN_MIN 0.0 0.0 0.0
DOMAIN_MAX 1.0 1.0 1.0
LUT_3D_SIZE 3
0.000000 0.000000 0.000000
0.620000 0.000000 0.000000
1.000000 0.000000 0.000000
0.000000 0.620000 0.000000
0.620000 0.620000 0.000000
1.000000 0.620000 0.000000
0.000000 1.000000 0.000000
0.620000 1.000000 0.000000
1.000000 1.000000 0.000000
0.000000 0.000000 0.620000
0.620000 0.000000 0.620000
1.000000 0.000000 0.620000
0.000000 0.620000 0.620000
0.620000 0.620000 0.620000
1.000000 0.620000 0.620000
0.000000 1.000000 0.620000
0.620000 1.000000 0.620000
1.000000 1.000000 0.620000
0.000000 0.000000 1.000000
0.620000 0.000000 1.000000
1.000000 0.000000 1.000000
0.000000 0.620000 1.000000
0.620000 0.620000 1.000000
1.000000 0.620000 1.000000
0.000000 1.000000 1.000000
0.620000 1.000000 1.000000
1.000000 1.000000 1.000000
